X:1
T:Benedictus - Ortiz
T:#
%%score [ 1 2 3 4 ]
L:1/8
Q:1/4=130
M:4/4
K:C
V:1 treble nm="Soprano" snm="Soprano"
V:2 treble nm="Alto" snm="Alto"
V:3 treble-8 nm="Tenor" snm="Tenor"
V:4 treble nm="Bass" snm="Bass"
V:1
 z26 | z38 ||[M:4/2][K:treble][Q:1/4=200][Q:1/4=200][Q:1/4=200][Q:1/4=200] z16 | z16 | z16 | z16 | %6
w: ||||||
 z8 G8 | A8 G8 | c4 c8 B4 | (c6 d2) e4 (d4- | d2 c2) (c8 B4) | c16- | c16 | z4 c4 c8 | %14
w: Et|e- re-|xit cor- nu|sa\- * lu- tis|* * no\- *|bis:||in do-|
 A4 (c8 B2 A2) | B4 c4 B4 (A4- | A2 G2) (G8 ^F4) | G16 || %18
w: mo Da\- * *|vid pu- e- ri|* * su\- *|i.|
[Q:1/4=130][Q:1/4=130][Q:1/4=130][Q:1/4=130] z24 | z26 || %20
w: ||
[M:4/2][Q:1/4=200][Q:1/4=200][Q:1/4=200][Q:1/4=200] z16 | z16 | z8 c8 | d16 | e8 c8 | c12 B4 | %26
w: ||Sa-|lu-|tem ex|i- ni-|
 A4 c8 B4 | c8 z4 c4- | c4 c4 A8- | A4 A4 G8- | G4 G4 (F6 G2 | A4 B4) c8 | B4 (A6 G2) (G4- | %33
w: mi- cis no-|stris: et|* de ma\-|* nu o\-|* mni- um *|* * qui|o- de\- * runt|
 G2 ^F2 F4) G16 ||[Q:1/4=130][Q:1/4=130][Q:1/4=130][Q:1/4=130] z36 | z28 || %36
w: * * * nos.|||
[M:4/2][Q:1/4=200][Q:1/4=200][Q:1/4=200][Q:1/4=200] z16 | z16 | z16 | z8 c8- | c4 c4 d4 d4 | %41
w: |||Ius\-|* iu- ran- dum,|
 (e6 d2 c4 B4) | A4 (c8 B4) | (A4 c8 B4) | c8 z8 | c8 d4 d4 | e8 c8- | c4 B4 (A4 c4-) | %48
w: quod * * *|* iu\- *|ra\- * *|vit|ad A- bra-|ham pa\-|* trem no\- *|
 (c4 B4) c8- | c16 | z8 z4 c4 | c8 B4 c4 | A8 G8- | G24 || %54
w: * * strum:||da-|tu- rum se|no- bis.||
[Q:1/4=130][Q:1/4=130][Q:1/4=130][Q:1/4=130] z36 | z22 || %56
w: ||
[M:4/2][Q:1/4=200][Q:1/4=200][Q:1/4=200][Q:1/4=200] z16 | z16 | G8 A8 | G4 (c8 B4) | c4 c8 c4 | %61
w: ||In san-|cti- ta\- *|te et iu-|
 c4 c4 c8 | c12 (B2 A2 | B2 c2 d6 c2) (c4- | c4 B4) c8- | c16 | c8 z8 | z4 c8 c4 | c4 c4 B8- | %69
w: sti- ti- a|co- ram *|* * * * i\-|* * pso:|||o- mni-|bus di- e\-|
 B4 c4 (B4 A4- | A2 G2 G8 ^F4) | G16 ||[Q:1/4=130][Q:1/4=130][Q:1/4=130][Q:1/4=130] z32 | z42 || %74
w: * bus no\- *||stris.|||
[M:4/2][Q:1/4=200][Q:1/4=200][Q:1/4=200][Q:1/4=200] z16 | z16 | G8 A8 | (G8 c8- | c4) B4 c8- | %79
w: ||Ad dan-|dam *|* sci- en\-|
 c4 c4 c4 c4 | (c12 B2 A2) | (B2 c2) d6 c2 (c4- | c4 B4) c8- | c16 | c8 z4 f4- | f4 f4 d4 e4 | %86
w: * ti- am sa-|lu\- * *|tis * ple- bi e\-|* * ius:||* in|* re- mis- si-|
 (f12 e4 | d8) c8- | (c4 B2 A2 B8) | z4 c8 c4 | c8 B8 | c8 A8 | G16- | G16 || %94
w: o\- *|* nem||pec- ca-|to- rum|e- o-|rum.||
[Q:1/4=130][Q:1/4=130][Q:1/4=130][Q:1/4=130] z30 | z30 || %96
w: ||
[M:4/2][Q:1/4=200][Q:1/4=200][Q:1/4=200][Q:1/4=200] z16 | z16 | G16 | A8 G8 | (c12 B4) | c8 c8 | %102
w: ||Il-|lu- mi-|na\- *|re his,|
 c12 c4 | c8 (c8- | c4 B2 A2) B8- | B16 | z4 c4 c4 c4 | B8 A4 (c4- | c4 B4) c4 c4 | c4 c4 c8 | %110
w: qui in|te- ne\-|* * * bris,||et um- bra|mor- tis se\-|* * dent: ad|di- ri- gen-|
 c8 c4 c4 | c8 c8 | z4 c4 c8 | (B8 c8) | A8 G8- | G16 | G16 || %117
w: dos pe- des|no- stros|in vi-|am *|pa- cis.|||
[Q:1/4=130][Q:1/4=130][Q:1/4=130][Q:1/4=130] z20 | z16 || %119
w: ||
[M:4/2][Q:1/4=200][Q:1/4=200][Q:1/4=200][Q:1/4=200] z16 | z8 G8- | G8 A8 | (G8 c8) | d16 | e12 e4 | %125
w: |Si\-|* cut|e\- *|rat|in prin-|
 c12 c4 | c8 B8 | (A6 G2 A2 B2) c4- | c4 B4 c8 | z4 c8 c4 | c4 A4 A8- | A4 A4 B8 | %132
w: ci- pi-|o, et|nunc, * * * et|* sem- per,|et in|sae- cu- la|* sae- cu-|
 c12[Q:1/4=197] A4 | %133
w: lo- rum,|
[Q:1/4=194] (B2[Q:1/4=192] A2[Q:1/4=189] G2[Q:1/4=187] F2[Q:1/4=185] E2[Q:1/4=183] F2[Q:1/4=180] G4- | %134
w: A\- * * * * * *|
[Q:1/4=176] G4[Q:1/4=171] ^F4)[Q:1/4=170] G16 |] %135
w: * * men.|
V:2
 z26 | z38 ||[M:4/2][K:treble] z16 | z16 | z8 C8 | D8 C8 | F8 D8 | D12 D4 | E4 C4 F8 | G12 G4 | %10
w: ||||Et|e- re-|xit cor-|nu sa-|lu- tis, sa-|lu- tis|
 A8 G8 | z4 G4 G8 | E4 G4 A4 G4 | A4 (A6 G2 F4) | (E6 F2) G8- | G4 G4 F4 F4 | (E8 D8) | D16 || %18
w: no- bis:|in do-|mo Da- vid pu-|e- ri * *|su\- * i,|* pu- e- ri|su\- *|i.|
 z24 | z26 ||[M:4/2] z16 | z8 C8 | D8 E4 E4 | D4 D4 G8- | G4 G4 (A6 GF) | (E4 F4 G8- | G4 F4 G8) | %27
w: |||Sa-|lu- tem ex|i- ni- mi\-|* cis no\- * *|||
 E16- | E8 z4 F4- | F4 F4 D8 | E8 D6 E2 | F8 G8 | F8 E8 | D8 D16 || z36 | z28 ||[M:4/2] z16 | z16 | %38
w: stris:|* et|* de ma-|nu o- mni-|um qui|o- de-|runt nos.|||||
 z4 C8 C4 | D4 D4 E8 | G4 (G8 F4) | G8 G8 | A8 (G8- | G4 F4) G8 | z4 C4 D4 D4 | E8 z4 G4- | %46
w: Ius- iu-|ran- dum, quod|iu- ra\- *|vit, quod|iu- ra\-|* * vit|ad A- bra-|ham pa\-|
 G4 G4 (A8 | G12 F4) | (G6 F2 E2 D2 C2 B,2 | A,8) z4 F4 | F8 E4 (F4- | F4 E2 F2 G8 | F8) E8- | %53
w: * trem no\-||strum: * * * * *|* da-|tu- rum se||* no\-|
 E8 D16 || z36 | z22 ||[M:4/2] z16 | G8 F4 D4 | E4 D4 F8 | E4 G4 (F4 D4) | (E6 F2 G4) A4- | %61
w: * bis.||||In san- cti-|ta- te, in|san- cti- ta\- *|te * * et|
 A4 F4 F4 F4 | E4 G8 G4 | (G12 F4) | G8 z4 G4- | G4 G4 G4 F4 | F12 F4 | (F12 E2 F2 | %68
w: * iu- sti- ti-|a co- ram|i\- *|pso: o\-|* mni- bus di-|e- bus|no\- * *|
 G4 F2 E2) D4 G4- | G4 G4 F4 F4 | E4 C4 D8 | D16 || z32 | z42 ||[M:4/2] z16 | z16 | z16 | %77
w: * * * stris, o\-|* mni- bus di-|e- bus no-|stris.||||||
 z4 G4 (F4 E4) | G8 E4 A4- | A4 G4 F8 | G4 G8 G4 | G8 E4 F4 | G8 z4 G4- | G4 G4 E4 G4 | A12 A4 | %85
w: Ad dan\- *|dam sci- en\-|* ti- am|sa- lu- tis|ple- bi e-|ius: in|* re- mis- si-|o- nem|
 A4 A4 G8 | A8 z4 G4- | G4 F4 (E4 F4) | G12 G4 | A8 A8- | A8 G8- | G8 (F8 | E8) D8- | D16 || z30 | %95
w: pec- ca- to-|rum, pec\-|* ca- to\- *|rum e-|o- rum,|* e\-|* o\-|* rum.|||
 z30 ||[M:4/2] z4 G4 E4 F4 | (G12 F2 E2 | D8) E8- | E4 F4 D4 (G4- | G4 F2 E2 F4 D4) | E8 C8 | %102
w: |Il- lu- mi-|na\- * *|* re,|* il- lu- mi\-||na- re|
 z4 A8 A4- | A4 F4 F4 F4 | D4 G4 G4 G4 | G12 G4 | (G8 F6 E2 | D4 G8 F4 | G8) E4 G4 | A4 A4 (G8 | %110
w: his, qui|* in te- ne-|bris, et um- bra|mor- tis|se\- * *||* dent: ad|di- ri- gen\-|
 A8) G4 A4- | A4 A4 A8 | G4 A4 A8 | G16 | F8 (E8- | E8 D8- | D16) || z20 | z16 ||[M:4/2] z16 | %120
w: * dos pe\-|* des no-|stros in vi-|am|pa- cis.||||||
 D8 E8 | (D8 E4 F4 | D8) E4 G4- | G4 ^F4 G8- | G8 E8 | A12 F4 | F4 F4 D4 G4 | E4 E4 E8 | G4 G8 G4 | %129
w: Si- cut|e\- * *|* rat, si\-|* cut e\-|* rat|in prin-|ci- pi- o, et|nunc, et sem-|per, et in|
 G4 G4 E8 | F4 F4 E8- | E4 F4 D8 | E4 (G8 F2 E2 | D4 G6 F2 E4 | D8) D16 |] %135
w: sae- cu- la|sae- cu- lo\-|* rum, A-|men, A\- * *||* men.|
V:3
"^Benedictus""^Diego Ortiz\n(c.1510-1570)" x2- x2 x2 x2 x2 x2 x2 A2 c2 d2 c2 c4 | %1
w: Be- De- us Is- ra- el:|
 x2- x2 x2 x2 x2 x2 x2 x2 x2 x2 x2 x2 x2 x2 B2 c2 A2 G4 ||[M:4/2][K:treble-8] G8 A8 | (G4 A8 G4) | %4
w: qui- ple- bi su- ae.|Et e-|re\- * *|
 c8 (A8- | A4 B4) c8 | (c12 B4) | (A8 B4 G4-) | (G4 A4) F4 (f4- | f4 e2 d2 c4 d4 | e4 f4 d8) | %11
w: xit cor\-|* * nu|sa\- *|lu\- * *|* * tis no\-|||
 c16 | z8 z4 c4 | c8 A4 c4 | c8 d8- | d4 e4 (d6 c2 | B4) (c4 A8) | G16 || %18
w: bis:|in|do- mo Da-|vid pu\-|* e- ri *|* su\- *|i.|
 x2- x2 x2 x2 x2 x2 x2 A2 c2 d2 c4 | x2- x2 x2 x2 x2 x2 x2 x2 B2 c2 A2 G4 || %20
w: Si- os san- cto- rum:|qui ta- rum e- ius.|
[M:4/2][K:treble-8] c8 d8 | (e6 d2 c2 B2 A4- | A4 B4 c8- | c4 B2 A2 B4) B4 | B4 c4 c8- | %25
w: Sa- lu-|tem * * * *||* * * * ex|i- ni- mi\-|
 c4 c4 (d8 | c8 d8) | c8 z8 | c12 c4 | A4 c8 B4 | c8 A4 d4- | d4 d4 (e8 | d6 c2 B4 c4) | A8 G16 || %34
w: * cis no\-||stris:|et de|ma- nu o-|mni- um qui|* o- de\-||runt nos.|
 x2- x2 x2 x2 x2 x2 x2 x2 x2 x2 x2 x2 x2 A2 c2 d2 c4 | x2- x2 x2 x2 x2 x2 x2 x2 x2 B2 c2 A2 G4 || %36
w: Ad ri- bus no- stris:|et su- i san- cti.|
[M:4/2][K:treble-8] c12 c4 | d4 d4 e4 d4 | (c6 B2 A4 c4- | c4 B4 c6 d2 | e8 d8 | c6 d2 e8) | %42
w: Ius- iu-|ran- dum, quod iu-|ra\- * * *||||
 (f6 e2) d8 | z4 c4 d4 d4 | e4 A8 B4 | (c12 B2 A2 | B4) c4 (c6 d2 | e4 d4 c8-) | d8 c8 | %49
w: * * vit|ad A- bra-|ham pa- trem|no\- * *|* strum, no\- *||* strum:|
 z4 c4 (c8- | c4 B4) c8- | c4 c4 (d4 e4 | d6 c2 B4 c4- | c4 B2 A2) B16 || %54
w: da- tu\-|* * rum|* se no\- *||* * * bis.|
 x2- x2 x2 x2 x2 x2 x2 x2 x2 x2 x2 x2 x2 A2 c2 d2 c4 | x2- x2 x2 x2 x2 x2 B2 c2 A2 G4 || %56
w: Ut rum no- stro- rum:|li- a- mus il- li.|
[M:4/2][K:treble-8] G8 A8 | G4 (c8 B4) | c4 B4 c4 d4 | (B4 c4 d8) | G4 c8 A4 | A12 A4 | %62
w: In san-|cti- ta\- *|te, in san- cti-|ta\- * *|te et iu-|sti- ti-|
 G4 c4 (d8- | d4 B4) (c8 | d8) c8 | z4 c8 c4 | c4 c4 A4 c4 | (d4 c2 B2 c6 BA | G4 A4 B6 c2 | %69
w: a co- ram|* * i\-|* pso:|o- mni-|bus di- e- bus|no\- * * * * *||
 d4 e4 d6 c2 | B4 G4 A8) | G16 || x2- x2 x2 x2 x2 x2 x2 x2 x2 x2 x2 A2 c2 d2 c4 | %73
w: ||stris.|Et vo- ca- be- ris:|
 x2- x2 x2 x2 x2 x2 x2 x2 x2 x2 x2 x2 x2 x2 x2 x2 B2 c2 A2 G4 ||[M:4/2][K:treble-8] c8 (B4 A4) | %75
w: prae- vi- as e- is.|Ad dan\- *|
 c12 c4 | c8 c4 c4- | c4 B4 c8 | d8 (c6 B2 | c2 d2 e4) (c6 d2 | e12 d2 c2) | d4 (B4 c8 | d8) c8 | %83
w: dam sci-|en- ti- am|* sa- lu-|tis ple\- *|* * * bi *||* e\- *|* is:|
 z4 c8 c4 | A8 c8 | (d4 c8 B4 | c4 A6 B2 c4) | A4 A8 A4 | G2 (A2 B2 c2 d4 B4 | c6 B2 c2 d2 e4- | %90
w: in re-|mis- si-|o\- * *||nem pec- ca-|to\- * * * * *||
 e4 f4) d8 | e8 (d6 c2 | B4 c8 B2 A2) | B16 || x2- x2 x2 x2 x2 x2 x2 x2 x2 x2 A2 c2 d2 c4 | %95
w: * * rum|e- o\- *||rum.|Per De- i no- stri:|
 x2- x2 x2 x2 x2 x2 x2 x2 x2 x2 B2 c2 A2 G4 ||[M:4/2][K:treble-8] G8 A8 | G8 (c8- | c4 B4) c8 | %99
w: in ens ex al- to.|Il- lu-|mi- na\-|* * re,|
 A4 d8 B4 | (c6 B2 A4 B4) | G4 g8 e4- | e4 e4 c8- | c4 c4 A8 | z8 d8 | d4 d4 B4 d4 | (e6 d2 c4 A4 | %107
w: il- lu- mi-|na\- * * *|re his, qui|* in te\-|* ne- bris,|et|um- bra mor- tis|se\- * * *|
 B2 c2 d2 B2 c8 | d8) c4 e4 | e4 (f6 ed) e4 | f4 c8 c4 | (c8 f8) | e4 f4 f4 f4 | (d8 e8) | %114
w: |* dent: ad|di- ri\- * * gen-|dos pe- des|no\- *|stros in vi- am|pa\- *|
 (d8 B8) | (c12 B2 A2) | B16 || x2- x2 x2 x2 A2 c2 d2 d2 c4 | x2- x2 x2 B2 c2 A2 G4 || %119
w: cis, *|pa\- * *|cis.|Glo- tri, et Fi- li- o,|et tu- i San- cto:|
[M:4/2][K:treble-8] z16 | z16 | z16 | z8 G8 | A8 (G8 | c12) c4 | c4 c4 c4 c4 | c4 A4 (B8 | %127
w: |||Si-|cut e\-|* rat|in prin- ci- pi-|o, et nunc,|
 c12) c4 | d8 c8 | z8 z4 c4- | c4 c4 c4 c4 | c8 z8 | c12 c4 | B8 c8 | A8 G16 |] %135
w: * et|sem- per,|et|* in sae- cu-|la|sae- cu-|lo- rum,|A- men.|
V:4
 z26 | z38 ||[M:4/2][K:bass] z16 | C,8 D,8 | C,8 F,8- | F,4 G,4 A,8 | F,8 G,8- | %7
w: |||Et e-|re- xit|* cor- nu|sa- lu\-|
 G,4 ^F,4 (G,6 =F,2) | (E,4 F,4 D,8) | C,4 (C8 B,4) | A,4 F,4 G,8 | C,8 z4 C4 | C8 A,4 C4 | %13
w: * tis no\- *||bis, sa\- *|lu- tis no-|bis: in|do- mo Da-|
 F,8 F,6 G,2 | A,4 A,4 G,8- | G,4 C,4 D,8 | E,4 C,4 D,8 | G,16 || z24 | z26 ||[M:4/2] z4 F,8 G,4- | %21
w: vid pu\- *|e- ri su\-|* i, pu-|e- ri su-|i.|||Sa- lu\-|
 G,4 (A,6 G,2 F,2 E,2 | D,8) C,8 | G,12 G,4 | E,4 C,4 (F,6 G,2) | (A,8 G,8) | (A,8 G,8) | %27
w: * tem * * *|* ex|i- ni-|mi- cis no\- *||stris: *|
 z4 C8 C4 | A,12 F,4 | F,8 G,8 | C,8 D,8- | D,4 D,4 (C,8 | D,8 E,4 C,4) | D,8 G,16 || z36 | z28 || %36
w: et de|ma- nu|o- mni-|um qui|* o- de\-||runt nos.|||
[M:4/2] z8 F,8- | F,4 F,4 G,4 G,4 | (A,6 G,2 F,4) E,4 | D,8 C,8- | C,8 z8 | z16 | F,8 G,4 G,4 | %43
w: Ius\-|* iu- ran- dum,|quod * * iu-|ra- vit,|||ad A- bra-|
 A,8 (G,6 F,2 | E,4) F,4 D,8 | C,8 G,8 | (E,4 C,4) (F,8 | G,8) A,8- | G,8 z4 F,4 | F,8 E,4 F,4 | %50
w: ham pa\- *|* trem no-|strum, pa-|trem * no\-|* strum:|* da-|tu- rum se|
 D,8 C,4 (F,4- | F,2 G,2 A,4) G,4 C,4 | D,8 E,4 (C,4- | C,2 D,2 E,2 F,2 G,16) || z36 | z22 || %56
w: no- bis, da\-|* * * tu- rum|se no- bis.||||
[M:4/2] G,8 F,4 D,4 | (E,8 D,8) | C,4 G,4 F,4 D,4 | (E,8 D,8) | C,8 z4 F,4- | F,4 F,4 F,4 F,4 | %62
w: In san- cti-|ta\- *|te, in san- cti-|ta\- *|te et|* iu- sti- ti-|
 C,8 G,8- | G,4 G,4 (A,8 | G,8) C,8- | C,8 z4 F,4- | F,4 F,4 F,4 F,4 | (D,4 F,6 E,D, C,2 D,2 | %68
w: a co\-|* ram i\-|* pso:|* o\-|* mni- bus di-|e\- * * * * *|
 E,4 F,4 G,8- | G,4) C,4 (D,8 | E,8 D,8) | G,16 || z32 | z42 ||[M:4/2] C,8 D,8 | (C,8 F,8- | %76
w: |* bus no\-||stris.|||Ad dan-|dam *|
 F,4) E,4 F,8 | G,8 A,8 | G,8 (A,6 G,2 | F,4 E,4 F,6 E,D, | C,2 D,2 E,2 F,2) G,8- | G,4 G,4 A,8 | %82
w: * sci- en-|ti- am|sa- lu\- *||* * * * tis|* ple- bi|
 G,8 C,8- | C,16 | z4 F,8 F,4 | D,4 F,4 (G,8 | F,6 E,2 D,4 C,4) | D,8 z8 | G,12 G,4 | %89
w: e- ius:||in re-|mis- si- o\-||nem,|pec- ca-|
 (F,6 G,2 A,8- | A,4 F,4) G,8 | C,8 (D,8 | E,4 C,4) G,8- | G,16 || z30 | z30 ||[M:4/2] z16 | %97
w: to\- * *|* * rum|e- o\-|* * rum.|||||
 z4 G,4 E,4 F,4 | G,8 C,8 | z8 x4 G,4 | E,4 F,8 G,4 | C,8 z4 C4- | C4 A,8 A,4 | F,12 F,4 | G,16 | %105
w: Il- lu- mi-|na- re,|il-|lu- mi- na-|re his|* qui in|te- ne-|bris,|
 G,8 G,4 G,4 | E,4 C,4 (F,8 | G,8) (A,8 | G,8) z4 C4 | A,4 F,4 C8 | F,8 z4 F,4- | F,4 F,4 F,8 | %112
w: et um- bra|mor- tis se\-|* dent:|* ad|di- ri- gen-|dos pe\-|* des no-|
 C,4 F,4 F,8 | (G,8 C,8) | (D,8 E,8) | (C,8 G,8- | G,16) || z20 | z16 ||[M:4/2] G,8 A,8 | %120
w: stros in vi-|am *|pa\- *|cis. *||||Si- cut|
 (G,8 C8- | C4 B,4 A,4 F,4 | G,8 C,4 E,4) | D,8 z8 | z8 A,8- | A,4 F,4 F,8- | F,4 F,4 G,4 G,4 | %127
w: e\- *|||rat|in|* prin- ci\-|* pi- o, et|
 A,12 A,4 | G,8 C,4 C4- | C4 C4 C4 A,4 | (F,6 G,2) A,8- | A,4 F,4 G,8 | (C,6 D,2 E,4 F,4 | %133
w: nunc, et|sem- per, et|* in sae- cu-|la * sae\-|* cu- lo-|rum, * * *|
 G,8) (C,8 | D,8) G,16 |] %135
w: * A\-|* men.|

